X: 835
T: Alberta Crosswind, The
R: hornpipe
M: 4/4
K: Gmajor
|:D/E/F|"G"G2 B2 dedB|"D"c2 A2 E2G2|FD^CD FG^GA|"G"BedG B2A2|
G2 e2 d/d/d BG|"C"c2 e2 g2e2|"D"dBGB cAFD|"G"G/G/G BA G2:|
|:FE|"D"DAFA Dc^GA|"G"BedG B2 BA|"E7"^GE^DE GABe|"D"d/d/d cB c2 ef|
"G"g2 G2 f2 ef|"D"edd^c d2 B^G|ABc^c dedA|"G"G/G/G BA G2:|

